src/assets/media/svg/sprite/conference.svg

<svg width="24" height="24" viewBox="0 0 24 24" xmlns="http://www.w3.org/2000/svg">
<path d="M21 15.75V11.25C21 10.4544 20.6839 9.69129 20.1213 9.12868C19.5587 8.56607 18.7956 8.25 18 8.25C17.2044 8.25 16.4413 8.56607 15.8787 9.12868C15.3161 9.69129 15 10.4544 15 11.25V15.75C15.0038 16.4121 15.2266 17.0544 15.6335 17.5767C16.0405 18.099 16.6089 18.472 17.25 18.6375V21.75H15.75C15.5511 21.75 15.3603 21.829 15.2197 21.9697C15.079 22.1103 15 22.3011 15 22.5C15 22.6989 15.079 22.8897 15.2197 23.0303C15.3603 23.171 15.5511 23.25 15.75 23.25H20.25C20.4489 23.25 20.6397 23.171 20.7803 23.0303C20.921 22.8897 21 22.6989 21 22.5C21 22.3011 20.921 22.1103 20.7803 21.9697C20.6397 21.829 20.4489 21.75 20.25 21.75H18.75V18.6375C19.3911 18.472 19.9595 18.099 20.3665 17.5767C20.7734 17.0544 20.9962 16.4121 21 15.75Z"/>
<path d="M13.5 15.75V11.25C13.5013 10.1941 13.8739 9.1722 14.5526 8.36325C15.2313 7.5543 16.1728 7.00979 17.2125 6.825C17.2125 6.675 17.25 6.525 17.25 6.375C17.25 3.2625 14.8875 0.75 12 0.75C9.1125 0.75 6.75 3.2625 6.75 6.375C6.73975 7.2752 6.94147 8.16517 7.33885 8.97297C7.73624 9.78078 8.31814 10.4837 9.0375 11.025C7.28046 11.6433 5.75738 12.7893 4.67665 14.3064C3.59592 15.8235 3.01032 17.6374 3 19.5H15.525C14.9039 19.091 14.3938 18.5343 14.0404 17.8799C13.687 17.2255 13.5014 16.4937 13.5 15.75Z"/>
</svg>

<svg xmlns="http://www.w3.org/2000/svg" width="24" height="24"><path d="M21 15.75v-4.5a3 3 0 0 0-6 0v4.5a3 3 0 0 0 2.25 2.887v3.113h-1.5a.75.75 0 1 0 0 1.5h4.5a.75.75 0 1 0 0-1.5h-1.5v-3.113A3 3 0 0 0 21 15.75"/><path d="M13.5 15.75v-4.5a4.5 4.5 0 0 1 3.712-4.425c0-.15.038-.3.038-.45C17.25 3.263 14.887.75 12 .75S6.75 3.263 6.75 6.375a5.74 5.74 0 0 0 2.287 4.65A9.04 9.04 0 0 0 3 19.5h12.525a4.5 4.5 0 0 1-2.025-3.75"/></svg>
